X: 41127
T: Trip To The Quarry
R: jig
M: 6/8
K: Adorian
ed|:c2 e dBB|cAF GAB|c2 e d2 g|efg fdB|c2 e dBB|cAF GAB|cde dBG|1 BAA A2 d:|2 BAA A2 A||
|:Bcd efg|aba a3/2 a/g/f/|d3 d^cd|efg e^cA|B^cd efg|aba a3/2 g/f/e/|d3 Bed|1 ^cAA A2 d:|2 ^c A A A||

